svg/reload.svg

<?xml version="1.0" encoding="UTF-8"?>
<svg xmlns="http://www.w3.org/2000/svg" xmlns:xlink="http://www.w3.org/1999/xlink" width="32" height="32" viewBox="0 0 32 32">
<path fill="none" stroke-width="2" stroke-linecap="round" stroke-linejoin="round" stroke="rgb(0%, 0%, 0%)" stroke-opacity="1" stroke-miterlimit="4" d="M 21.363281 12.464844 L 28.019531 12.464844 L 28.019531 12.460938 M 3.980469 26.191406 L 3.980469 19.535156 M 3.980469 19.535156 L 10.636719 19.535156 M 3.980469 19.535156 L 8.21875 23.78125 C 11 26.554688 15.046875 27.636719 18.84375 26.625 C 22.640625 25.609375 25.605469 22.644531 26.625 18.847656 M 5.375 13.152344 C 6.390625 9.355469 9.355469 6.390625 13.152344 5.375 C 16.949219 4.355469 21 5.4375 23.777344 8.21875 L 28.019531 12.460938 M 28.019531 5.808594 L 28.019531 12.460938 "/>
</svg>

<svg role="img" viewBox="0 0 32 32" xmlns="http://www.w3.org/2000/svg"><path d="M21.363 12.465h6.657v-.004M3.98 26.19v-6.656m0 0h6.657m-6.657 0 4.239 4.246a11.01 11.01 0 0 0 10.625 2.844 11 11 0 0 0 7.781-7.777m-21.25-5.696a10.99 10.99 0 0 1 7.777-7.777 10.99 10.99 0 0 1 10.625 2.844l4.243 4.242m0-6.652v6.652" fill="none" stroke="rgb(0%, 0%, 0%)" stroke-linecap="round" stroke-linejoin="round" stroke-width="2"/></svg>
